X: 082129
T: Hazy Valley
C: Joe Liddy
Z: BB
S: "The Leitrim Fiddler" (Dublin 1981)
L: 1/8
M: 4/4
R: reel
Q: 1/4 = 180
K: G
DG | BdBG ABcd | BcAG FD D2 | BGBd cBcd | fdef gedc |
B2 GB cBAG | FADE FG A2 | fedf ecAc | BGAF G2 :|
dc |: BGBd cdeg | fdge fdcA | BG G2 AGFD | GABc defd |
g2 ag fdef | gfec BGFD |1 GABc dfdc | BGAF G2 Ad :|
[2 GAcd fgaf | (3gfd cA G4 ||
%%%%%%%%%%%%%%%%%%%%
